!!!COM: Beethoven
!!!OTL: 32 Variationen fur das pianoforte
!!!Variation: Variation 28 a
**function	**harm	**kern	**kern
*	*	*clefF4	*clefG2
*	*	*k[b-e-a-]	*k[b-e-a-]
*M3/4	*M3/4	*M3/4	*M3/4
*c:	*c:	*c:	*c:
=225	=225	=225	=225
2.T	2.i	16CLL	(4gg
.	.	16e-	.
.	.	16c	.
.	.	16e-JJ	.
.	.	16GLL	4eee-
.	.	16e-	.
.	.	16c	.
.	.	16e-JJ	.
.	.	16GLL	4ccc
.	.	16e-	.
.	.	16c	.
.	.	16e-JJ	.
=226	=226	=226	=226
2.T	2.V	16GGLL	4bb
.	.	16d	.
.	.	16B	.
.	.	16dJJ	.
.	.	16GLL	4ddd
.	.	16d	.
.	.	16B	.
.	.	16dJJ	.
.	.	16GLL	4gg
.	.	16d	.
.	.	16B	.
.	.	16dJJ	.
=227	=227	=227	=227
2.T	2.V7m9/IV	16CLL	4bb-
.	.	16e	.
.	.	16B-	.
.	.	16eJJ	.
.	.	16GLL	4ddd-
.	.	16e	.
.	.	16B-	.
.	.	16eJJ	.
.	.	16GLL	4bb-
.	.	16e	.
.	.	16B-	.
.	.	16eJJ	.
=228	=228	=228	=228
2.P	2.IV	16FLL	4aa
.	.	16f	.
.	.	16c	.
.	.	16fJJ	.
.	.	16ALL	4ccc
.	.	16f	.
.	.	16c	.
.	.	16fJJ	.
.	.	16ALL	4ff
.	.	16f	.
.	.	16c	.
.	.	16fJJ	.
=229	=229	=229	=229
2.P	2.V7m9/V	16DLL	4ff#
.	.	16c	.
.	.	16A	.
.	.	16cJJ	.
.	.	16F#LL	4ee-
.	.	16c	.
.	.	16A	.
.	.	16cJJ	.
.	.	16F#LL	4cc
.	.	16c	.
.	.	16A	.
.	.	16cJJ	.
=230	=230	=230	=230
2.D	2.V7m9	16GGLL	4b
.	.	16A-	.
.	.	16F	.
.	.	16A-JJ	.
.	.	16DLL	4a-
.	.	16A-	.
.	.	16F	.
.	.	16A-JJ	.
.	.	16DLL	4f
.	.	16A-	.
.	.	16F	.
.	.	16A-JJ	.
*	*	*	*clefF4
=231	=231	=231	=231
4D	4viioD7	16BBLL	4d
.	.	16A-	.
.	.	16F	.
.	.	16A-JJ	.
4D	4viioD7d	16AA-LL	4F
.	.	16D	.
.	.	16BB	.
.	.	16DJJ	.
4D	4V	16GGLL	4G
.	.	16AA-	.
.	.	16GG	.
.	.	16FFJJ	.
=232	=232	=232	=232
4T	4i	16EE-LL	4C
.	.	16DD	.
.	.	16EE-	.
.	.	16CCJJ	.
4T	4V	16BBBLL	4GG
.	.	16GGG	.
.	.	16AAA	.
.	.	16BBBJJ	.
4T	4i	4CC	4C)
*-	*-	*-	*-
